X:431
T:
S:Efter »Florsen» i Burs.
R:vals
O:Gotland, Burs
M:3/4
L:1/8
K:G
Bc|d4 b2|g4 Bc|d4 b2|g6|b4 a2|e4 f2|a3 fge|d4 Bc|d4 b2|g4 Bc|
d4 b2|g6|b4 a2|e4 f2|g2 g2 g2|g4::Bc|d6-|d2 efga|b6|g4 e'2|
d'4 d'2|c'4 f2|a3 gfe|d4 Bc|d6-|d2 efga|b4 b2|g4 e'2|d'4 d'2|
c'2 e2 f2|g3 g g2|g4||

